_images/logo-dark.svg

<svg width="243" height="70" viewBox="0 0 243 70" fill="none" xmlns="http://www.w3.org/2000/svg">
<path d="M55.2604 26.6635V23.8291H48.0647H44.6114H37.4507V26.6635H44.6114V45.7347H48.0647V26.6635H55.2604Z" fill="white"/>
<path d="M64.7885 30.4478C63.5381 29.7932 62.1377 29.4673 60.7224 29.5015H60.5639C59.1666 29.4739 57.786 29.8056 56.5583 30.4639C55.3923 31.1041 54.4482 32.0747 53.8483 33.25C53.173 34.6348 52.8438 36.1587 52.8882 37.6945V37.9242C52.8479 39.4386 53.183 40.9398 53.8646 42.2975C54.4648 43.4673 55.4018 44.4365 56.5583 45.0837C57.7828 45.7437 59.1616 46.0755 60.5569 46.0461H60.7154C62.1327 46.0799 63.5344 45.7482 64.7816 45.0837C65.9472 44.4428 66.8973 43.4799 67.5149 42.3136C68.216 40.9512 68.5597 39.4374 68.5145 37.9104V37.6807C68.5599 36.1361 68.219 34.6042 67.5219 33.2201C66.9109 32.0485 65.9592 31.0832 64.7885 30.4478ZM64.9959 37.9104C65.036 38.9748 64.8561 40.036 64.467 41.0296C64.1798 41.7532 63.6654 42.3672 62.999 42.7822C62.3069 43.1729 61.5197 43.3698 60.7224 43.3518H60.5639C59.7791 43.3752 59.0036 43.1793 58.3269 42.7868C57.6728 42.3623 57.1739 41.7425 56.9032 41.0181C56.5401 40.0296 56.3717 38.9819 56.4068 37.9311V37.6807C56.3743 36.6256 56.5427 35.5739 56.9032 34.5799C57.1726 33.8476 57.6712 33.2186 58.3269 32.7837C58.9994 32.3796 59.7766 32.1769 60.5639 32.2003H60.7224C61.5182 32.1801 62.3043 32.3764 62.9943 32.7677C63.6673 33.1876 64.1827 33.8126 64.4623 34.5478C64.8374 35.5495 65.0115 36.6135 64.975 37.6807L64.9959 37.9104Z" fill="white"/>
<path d="M74.7289 23.8281H71.3408V45.7314H74.7289V23.8281Z" fill="white"/>
<path d="M89.4864 30.4479C88.2362 29.7928 86.8356 29.4669 85.4202 29.5015H85.2618C83.8653 29.4749 82.4857 29.8065 81.2585 30.4639C80.0953 31.1063 79.1532 32.0765 78.5531 33.2501C77.8786 34.635 77.5502 36.159 77.5954 37.6946V37.9243C77.5516 39.4417 77.886 40.9465 78.5694 42.3068C79.1699 43.4725 80.1051 44.4383 81.2585 45.0837C82.4831 45.7434 83.8618 46.0753 85.2571 46.0461H85.4156C86.8329 46.08 88.2345 45.7482 89.4817 45.0837C90.6457 44.4422 91.5941 43.4794 92.2104 42.3137C92.9113 40.9511 93.2557 39.4376 93.2124 37.9105V37.6808C93.2536 36.1363 92.9095 34.6054 92.2104 33.2225C91.603 32.0509 90.6545 31.0847 89.4864 30.4479ZM89.6938 37.9105C89.7339 38.9748 89.5539 40.0361 89.1648 41.0297C88.8776 41.7532 88.3632 42.3673 87.6968 42.7822C87.0129 43.1623 86.2377 43.3536 85.4528 43.3358H85.2944C84.5096 43.3592 83.7341 43.1633 83.0574 42.7708C82.4028 42.3469 81.9037 41.7269 81.6336 41.0021C81.2661 40.0129 81.0936 38.9635 81.1257 37.9105V37.6647C81.0927 36.6089 81.261 35.5563 81.622 34.5616C81.8902 33.8286 82.389 33.1992 83.0457 32.7654C83.718 32.3606 84.4952 32.1571 85.2827 32.1797H85.4528C86.249 32.1592 87.0353 32.3564 87.7248 32.7494C88.3951 33.1724 88.9065 33.8 89.1812 34.5363C89.5609 35.5411 89.7382 36.6092 89.7031 37.6808L89.6938 37.9105Z" fill="white"/>
<path d="M109.996 29.8782H106.128L99.4475 36.8768V23.8281H96.0547V45.7337H99.4475V38.1034L106.417 45.7337H110.635L102.836 37.2857L109.996 29.8782Z" fill="white"/>
<path d="M124.784 44.4383C124.711 43.8853 124.675 43.3283 124.674 42.7707V35.0508C124.674 33.0755 124.098 31.656 122.945 30.7924C121.793 29.9287 120.169 29.4984 118.075 29.5015H117.982C116.746 29.4907 115.515 29.6452 114.321 29.9609C113.481 30.1581 112.669 30.4598 111.905 30.859V33.9162C112.352 33.5626 112.861 33.2911 113.406 33.1145C114.106 32.8668 114.824 32.6725 115.554 32.5334C116.285 32.3801 117.03 32.3031 117.777 32.3037H117.903C118.794 32.2459 119.682 32.4601 120.445 32.917C121.032 33.3259 121.325 34.0555 121.324 35.106V36.05H118.76C116.203 36.05 114.28 36.4604 112.991 37.2811C111.701 38.1019 111.058 39.3514 111.059 41.0297V41.1905C111.059 42.7217 111.559 43.9085 112.56 44.7507C113.63 45.6143 114.983 46.0621 116.365 46.0094H116.556C117.571 46.0441 118.579 45.8393 119.497 45.4122C120.3 45.002 120.958 44.3613 121.384 43.5747C121.382 44.0073 121.419 44.4392 121.494 44.8655C121.541 45.1723 121.633 45.4708 121.766 45.7521H125.066C124.927 45.3247 124.833 44.8845 124.784 44.4383ZM121.319 41.0986C121.051 41.7668 120.557 42.3233 119.921 42.6743C119.178 43.0899 118.334 43.2964 117.481 43.2715H117.351C116.589 43.3155 115.834 43.1174 115.195 42.7064C114.936 42.519 114.729 42.2709 114.592 41.9845C114.455 41.6981 114.392 41.3826 114.41 41.0664V40.9516C114.381 40.5688 114.467 40.186 114.655 39.85C114.843 39.514 115.126 39.2391 115.47 39.0589C116.186 38.6822 117.288 38.4893 118.781 38.4893H121.319V41.0986Z" fill="white"/>
<path fill-rule="evenodd" clip-rule="evenodd" d="M14.7349 20.626C14.9428 20.626 15.1113 20.7945 15.1113 21.0024V30.9191C15.1113 31.127 14.9428 31.2955 14.7349 31.2955C14.5269 31.2955 14.3584 31.127 14.3584 30.9191V21.0024C14.3584 20.7945 14.5269 20.626 14.7349 20.626Z" fill="white"/>
<path fill-rule="evenodd" clip-rule="evenodd" d="M9.33699 21.6997C9.52907 21.6201 9.7493 21.7113 9.82887 21.9034L13.624 31.0652C13.7035 31.2572 13.6123 31.4775 13.4202 31.557C13.2281 31.6366 13.0079 31.5454 12.9283 31.3533L9.13325 22.1915C9.05368 21.9994 9.1449 21.7792 9.33699 21.6997Z" fill="white"/>
<path fill-rule="evenodd" clip-rule="evenodd" d="M4.75968 24.7577C4.9067 24.6107 5.14507 24.6107 5.29208 24.7577L12.3044 31.77C12.4514 31.917 12.4514 32.1554 12.3044 32.3024C12.1573 32.4494 11.919 32.4494 11.7719 32.3024L4.75968 25.2901C4.61266 25.1431 4.61266 24.9047 4.75968 24.7577Z" fill="white"/>
<path fill-rule="evenodd" clip-rule="evenodd" d="M1.7021 29.335C1.78167 29.1429 2.00189 29.0517 2.19398 29.1313L11.3557 32.9264C11.5478 33.006 11.639 33.2262 11.5595 33.4183C11.4799 33.6104 11.2597 33.7016 11.0676 33.622L1.90583 29.8269C1.71374 29.7473 1.62253 29.5271 1.7021 29.335Z" fill="white"/>
<path fill-rule="evenodd" clip-rule="evenodd" d="M0.62793 34.7339C0.62793 34.526 0.79648 34.3574 1.0044 34.3574H10.921C11.1289 34.3574 11.2975 34.526 11.2975 34.7339C11.2975 34.9418 11.1289 35.1104 10.921 35.1104H1.0044C0.79648 35.1104 0.62793 34.9418 0.62793 34.7339Z" fill="white"/>
<path fill-rule="evenodd" clip-rule="evenodd" d="M11.5595 36.0489C11.639 36.241 11.5478 36.4612 11.3557 36.5408L2.19398 40.3359C2.00189 40.4154 1.78167 40.3242 1.7021 40.1321C1.62253 39.94 1.71374 39.7198 1.90583 39.6403L11.0676 35.8452C11.2597 35.7656 11.4799 35.8568 11.5595 36.0489Z" fill="white"/>
<path fill-rule="evenodd" clip-rule="evenodd" d="M12.3044 37.165C12.4514 37.312 12.4514 37.5503 12.3044 37.6974L5.29208 44.7096C5.14507 44.8566 4.9067 44.8566 4.75968 44.7096C4.61266 44.5626 4.61266 44.3242 4.75968 44.1772L11.7719 37.165C11.919 37.0179 12.1573 37.0179 12.3044 37.165Z" fill="white"/>
<path fill-rule="evenodd" clip-rule="evenodd" d="M13.4202 37.9096C13.6123 37.9892 13.7035 38.2094 13.624 38.4015L9.82887 47.5633C9.7493 47.7554 9.52907 47.8466 9.33699 47.767C9.1449 47.6874 9.05368 47.4672 9.13325 47.2751L12.9283 38.1134C13.0079 37.9213 13.2281 37.83 13.4202 37.9096Z" fill="white"/>
<path fill-rule="evenodd" clip-rule="evenodd" d="M14.7349 38.1719C14.9428 38.1719 15.1113 38.3404 15.1113 38.5483V48.465C15.1113 48.6729 14.9428 48.8414 14.7349 48.8414C14.5269 48.8414 14.3584 48.6729 14.3584 48.465V38.5483C14.3584 38.3404 14.5269 38.1719 14.7349 38.1719Z" fill="white"/>
<path fill-rule="evenodd" clip-rule="evenodd" d="M16.0509 37.9096C16.2429 37.83 16.4632 37.9213 16.5427 38.1134L20.3378 47.2751C20.4174 47.4672 20.3262 47.6874 20.1341 47.767C19.942 47.8466 19.7218 47.7554 19.6422 47.5633L15.8471 38.4015C15.7675 38.2094 15.8588 37.9892 16.0509 37.9096Z" fill="white"/>
<path fill-rule="evenodd" clip-rule="evenodd" d="M17.1659 37.165C17.3129 37.0179 17.5513 37.0179 17.6983 37.165L24.7106 44.1772C24.8576 44.3242 24.8576 44.5626 24.7106 44.7096C24.5636 44.8566 24.3252 44.8566 24.1782 44.7096L17.1659 37.6974C17.0189 37.5503 17.0189 37.312 17.1659 37.165Z" fill="white"/>
<path fill-rule="evenodd" clip-rule="evenodd" d="M17.9111 36.0489C17.9907 35.8568 18.2109 35.7656 18.403 35.8452L27.5647 39.6403C27.7568 39.7198 27.848 39.94 27.7685 40.1321C27.6889 40.3242 27.4687 40.4154 27.2766 40.3359L18.1148 36.5408C17.9227 36.4612 17.8315 36.241 17.9111 36.0489Z" fill="white"/>
<path fill-rule="evenodd" clip-rule="evenodd" d="M18.1729 34.7339C18.1729 34.526 18.3414 34.3574 18.5493 34.3574H28.4659C28.6738 34.3574 28.8424 34.526 28.8424 34.7339C28.8424 34.9418 28.6738 35.1104 28.4659 35.1104H18.5493C18.3414 35.1104 18.1729 34.9418 18.1729 34.7339Z" fill="white"/>
<path fill-rule="evenodd" clip-rule="evenodd" d="M27.7685 29.335C27.848 29.5271 27.7568 29.7473 27.5647 29.8269L18.403 33.622C18.2109 33.7016 17.9907 33.6104 17.9111 33.4183C17.8315 33.2262 17.9227 33.006 18.1148 32.9264L27.2766 29.1313C27.4687 29.0517 27.6889 29.1429 27.7685 29.335Z" fill="white"/>
<path fill-rule="evenodd" clip-rule="evenodd" d="M24.7106 24.7577C24.8576 24.9047 24.8576 25.1431 24.7106 25.2901L17.6983 32.3024C17.5513 32.4494 17.3129 32.4494 17.1659 32.3024C17.0189 32.1554 17.0189 31.917 17.1659 31.77L24.1782 24.7577C24.3252 24.6107 24.5636 24.6107 24.7106 24.7577Z" fill="white"/>
<path fill-rule="evenodd" clip-rule="evenodd" d="M20.1341 21.6997C20.3262 21.7792 20.4174 21.9994 20.3378 22.1915L16.5427 31.3533C16.4632 31.5454 16.2429 31.6366 16.0509 31.557C15.8588 31.4775 15.7675 31.2572 15.8471 31.0652L19.6422 21.9034C19.7218 21.7113 19.942 21.6201 20.1341 21.6997Z" fill="white"/>
<path fill-rule="evenodd" clip-rule="evenodd" d="M14.7344 20C15.2888 20 15.7383 20.4495 15.7383 21.0039V25.8694C15.7383 26.4238 15.2888 26.8733 14.7344 26.8733C14.1799 26.8733 13.7305 26.4238 13.7305 25.8694V21.0039C13.7305 20.4495 14.1799 20 14.7344 20Z" fill="white"/>
<path fill-rule="evenodd" clip-rule="evenodd" d="M9.09559 21.1216C9.60783 20.9094 10.1951 21.1527 10.4073 21.6649L12.5884 26.9307C12.8006 27.4429 12.5573 28.0302 12.0451 28.2424C11.5328 28.4545 10.9456 28.2113 10.7334 27.699L8.55227 22.4333C8.34009 21.921 8.58334 21.3338 9.09559 21.1216Z" fill="white"/>
<path fill-rule="evenodd" clip-rule="evenodd" d="M4.31552 24.3155C4.70758 23.9235 5.34322 23.9235 5.73527 24.3155L10.2173 28.7975C10.6093 29.1896 10.6093 29.8252 10.2173 30.2173C9.82521 30.6093 9.18956 30.6093 8.79751 30.2173L4.31552 25.7353C3.92347 25.3432 3.92347 24.7076 4.31552 24.3155Z" fill="white"/>
<path fill-rule="evenodd" clip-rule="evenodd" d="M1.12162 29.0965C1.33382 28.5843 1.92108 28.3411 2.43332 28.5533L8.65172 31.1293C9.16395 31.3415 9.40718 31.9288 9.19498 32.441C8.98278 32.9532 8.39552 33.1965 7.88328 32.9843L1.66488 30.4082C1.15265 30.196 0.909419 29.6088 1.12162 29.0965Z" fill="white"/>
<path fill-rule="evenodd" clip-rule="evenodd" d="M0 34.7354C0 34.1809 0.449468 33.7314 1.00391 33.7314H7.86952C8.42397 33.7314 8.87343 34.1809 8.87343 34.7354C8.87343 35.2898 8.42397 35.7393 7.86952 35.7393H1.00391C0.449468 35.7393 0 35.2898 0 34.7354Z" fill="white"/>
<path fill-rule="evenodd" clip-rule="evenodd" d="M9.19498 37.0282C9.40718 37.5404 9.16395 38.1277 8.65172 38.3399L2.43332 40.9159C1.92108 41.1281 1.33382 40.8849 1.12162 40.3726C0.909419 39.8604 1.15265 39.2731 1.66488 39.0609L7.88328 36.4849C8.39552 36.2727 8.98278 36.5159 9.19498 37.0282Z" fill="white"/>
<path fill-rule="evenodd" clip-rule="evenodd" d="M10.2172 39.251C10.6093 39.643 10.6093 40.2787 10.2173 40.6708L5.73533 45.1534C5.3433 45.5455 4.70766 45.5456 4.31558 45.1535C3.9235 44.7615 3.92345 44.1259 4.31547 43.7338L8.79746 39.2511C9.18948 38.859 9.82512 38.859 10.2172 39.251Z" fill="white"/>
<path fill-rule="evenodd" clip-rule="evenodd" d="M12.0451 41.2271C12.5573 41.4392 12.8006 42.0265 12.5884 42.5387L10.4073 47.8045C10.1951 48.3167 9.60783 48.56 9.09559 48.3478C8.58334 48.1357 8.34009 47.5484 8.55227 47.0362L10.7334 41.7704C10.9456 41.2581 11.5328 41.0149 12.0451 41.2271Z" fill="white"/>
<path fill-rule="evenodd" clip-rule="evenodd" d="M14.7344 42.5967C15.2888 42.5967 15.7383 43.0461 15.7383 43.6006V48.4661C15.7383 49.0205 15.2888 49.47 14.7344 49.47C14.1799 49.47 13.7305 49.0205 13.7305 48.4661V43.6006C13.7305 43.0461 14.1799 42.5967 14.7344 42.5967Z" fill="white"/>
<path fill-rule="evenodd" clip-rule="evenodd" d="M18.094 42.8433C18.6063 42.6311 19.1935 42.8743 19.4058 43.3865L20.9168 47.0336C21.129 47.5458 20.8858 48.1331 20.3736 48.3453C19.8614 48.5575 19.2741 48.3143 19.0619 47.8021L17.5508 44.155C17.3386 43.6428 17.5818 43.0555 18.094 42.8433Z" fill="white"/>
<path fill-rule="evenodd" clip-rule="evenodd" d="M21.5396 41.5392C21.9317 41.1471 22.5673 41.1471 22.9594 41.5392L25.1533 43.7331C25.5453 44.1251 25.5453 44.7608 25.1533 45.1528C24.7612 45.5449 24.1256 45.5449 23.7335 45.1528L21.5396 42.9589C21.1476 42.5669 21.1476 41.9312 21.5396 41.5392Z" fill="white"/>
<path fill-rule="evenodd" clip-rule="evenodd" d="M24.1792 38.6464C24.3914 38.1341 24.9786 37.8909 25.4909 38.103L27.8039 39.0611C28.3161 39.2732 28.5594 39.8605 28.3472 40.3727C28.135 40.885 27.5478 41.1282 27.0355 40.9161L24.7225 39.958C24.2103 39.7459 23.967 39.1586 24.1792 38.6464Z" fill="white"/>
<path fill-rule="evenodd" clip-rule="evenodd" d="M25.1733 34.7354C25.1733 34.1809 25.6228 33.7314 26.1773 33.7314H28.466C29.0205 33.7314 29.4699 34.1809 29.4699 34.7354C29.4699 35.2898 29.0205 35.7393 28.466 35.7393H26.1773C25.6228 35.7393 25.1733 35.2898 25.1733 34.7354Z" fill="white"/>
<path fill-rule="evenodd" clip-rule="evenodd" d="M28.3472 29.0966C28.5594 29.6088 28.3161 30.1961 27.8039 30.4082L25.4909 31.3663C24.9786 31.5784 24.3914 31.3352 24.1792 30.8229C23.967 30.3107 24.2103 29.7234 24.7225 29.5113L27.0355 28.5532C27.5478 28.3411 28.135 28.5843 28.3472 29.0966Z" fill="white"/>
<path fill-rule="evenodd" clip-rule="evenodd" d="M25.1533 24.3155C25.5453 24.7076 25.5453 25.3432 25.1533 25.7353L22.9594 27.9292C22.5673 28.3212 21.9317 28.3212 21.5396 27.9292C21.1476 27.5371 21.1476 26.9015 21.5396 26.5094L23.7335 24.3155C24.1256 23.9235 24.7612 23.9235 25.1533 24.3155Z" fill="white"/>
<path fill-rule="evenodd" clip-rule="evenodd" d="M20.3736 21.1216C20.8858 21.3339 21.129 21.9211 20.9168 22.4334L19.4058 26.0804C19.1935 26.5927 18.6063 26.8359 18.094 26.6236C17.5818 26.4114 17.3386 25.8241 17.5508 25.3119L19.0619 21.6648C19.2741 21.1526 19.8614 20.9094 20.3736 21.1216Z" fill="white"/>
</svg>

<svg xmlns="http://www.w3.org/2000/svg" width="243" height="70" fill="none"><path fill="#fff" d="M55.26 26.663V23.83H37.451v2.834h7.16v19.072h3.454V26.663h7.195ZM64.788 30.448a8.335 8.335 0 0 0-4.066-.947h-.158a8.14 8.14 0 0 0-4.006.963 6.61 6.61 0 0 0-2.71 2.786 9.51 9.51 0 0 0-.96 4.444v.23a9.2 9.2 0 0 0 .977 4.373 6.703 6.703 0 0 0 2.693 2.787 8.072 8.072 0 0 0 3.999.962h.158a8.233 8.233 0 0 0 4.067-.962 6.792 6.792 0 0 0 2.733-2.77 9.036 9.036 0 0 0 1-4.404v-.23a9.306 9.306 0 0 0-.993-4.46 6.664 6.664 0 0 0-2.734-2.772Zm.208 7.462a7.751 7.751 0 0 1-.529 3.12 3.656 3.656 0 0 1-1.468 1.752 4.43 4.43 0 0 1-2.277.57h-.158a4.21 4.21 0 0 1-2.237-.565 3.622 3.622 0 0 1-1.424-1.769 8.16 8.16 0 0 1-.496-3.087v-.25a8.34 8.34 0 0 1 .496-3.101 3.684 3.684 0 0 1 1.424-1.796 4.108 4.108 0 0 1 2.237-.584h.158a4.382 4.382 0 0 1 2.272.568 3.615 3.615 0 0 1 1.468 1.78 8.138 8.138 0 0 1 .513 3.133l.02.23ZM74.729 23.828H71.34v21.903h3.388V23.828ZM89.486 30.448a8.325 8.325 0 0 0-4.066-.947h-.158a8.152 8.152 0 0 0-4.004.963 6.64 6.64 0 0 0-2.705 2.786 9.509 9.509 0 0 0-.958 4.445v.23a9.17 9.17 0 0 0 .974 4.382 6.703 6.703 0 0 0 2.69 2.777 8.078 8.078 0 0 0 3.998.962h.159a8.231 8.231 0 0 0 4.066-.962 6.79 6.79 0 0 0 2.728-2.77 9.062 9.062 0 0 0 1.002-4.404v-.23a9.328 9.328 0 0 0-1.002-4.458 6.65 6.65 0 0 0-2.724-2.774Zm.208 7.462a7.752 7.752 0 0 1-.53 3.12 3.655 3.655 0 0 1-1.467 1.752c-.684.38-1.46.572-2.244.554h-.159a4.21 4.21 0 0 1-2.237-.565 3.612 3.612 0 0 1-1.423-1.769 8.162 8.162 0 0 1-.508-3.092v-.245a8.331 8.331 0 0 1 .496-3.103 3.663 3.663 0 0 1 1.424-1.797 4.11 4.11 0 0 1 2.237-.585h.17a4.363 4.363 0 0 1 2.272.57 3.605 3.605 0 0 1 1.456 1.786 8.14 8.14 0 0 1 .522 3.145l-.01.23ZM109.996 29.878h-3.868l-6.68 6.999V23.828h-3.393v21.906h3.392v-7.63l6.97 7.63h4.218l-7.799-8.448 7.16-7.408ZM124.784 44.438a12.918 12.918 0 0 1-.11-1.667v-7.72c0-1.976-.576-3.395-1.729-4.259-1.152-.863-2.776-1.294-4.87-1.29h-.093a13.847 13.847 0 0 0-3.661.459c-.84.197-1.652.499-2.416.898v3.057a4.81 4.81 0 0 1 1.501-.801 14.67 14.67 0 0 1 2.148-.582c.731-.153 1.476-.23 2.223-.23h.126a4.397 4.397 0 0 1 2.542.614c.587.409.88 1.139.879 2.189v.944h-2.564c-2.557 0-4.48.41-5.769 1.231-1.29.82-1.933 2.07-1.932 3.749v.16c0 1.532.5 2.718 1.501 3.56a5.713 5.713 0 0 0 3.805 1.26h.191a6.45 6.45 0 0 0 2.941-.598 4.44 4.44 0 0 0 1.887-1.837c-.002.432.035.864.11 1.29.047.307.139.606.272.887h3.3a6.563 6.563 0 0 1-.282-1.314Zm-3.465-3.34a3.136 3.136 0 0 1-1.398 1.576 4.718 4.718 0 0 1-2.44.598h-.13a3.602 3.602 0 0 1-2.156-.566 1.907 1.907 0 0 1-.603-.722 1.88 1.88 0 0 1-.182-.918v-.114a1.954 1.954 0 0 1 .245-1.102c.188-.336.471-.61.815-.791.716-.377 1.818-.57 3.311-.57h2.538v2.61Z"/><path fill="#fff" fill-rule="evenodd" d="M14.735 20.626c.208 0 .376.168.376.376v9.917a.376.376 0 1 1-.753 0v-9.917c0-.207.169-.376.377-.376ZM9.337 21.7a.376.376 0 0 1 .492.203l3.795 9.162a.376.376 0 0 1-.696.288l-3.795-9.162a.376.376 0 0 1 .204-.491ZM4.76 24.758a.376.376 0 0 1 .532 0l7.012 7.012a.376.376 0 1 1-.532.532L4.76 25.29a.376.376 0 0 1 0-.532ZM1.702 29.335c.08-.192.3-.283.492-.204l9.162 3.795a.377.377 0 0 1-.288.696l-9.162-3.795a.376.376 0 0 1-.204-.492ZM.628 34.734c0-.208.168-.377.376-.377h9.917a.377.377 0 0 1 0 .753H1.004a.377.377 0 0 1-.376-.376ZM11.56 36.049a.377.377 0 0 1-.204.492l-9.162 3.795a.377.377 0 0 1-.288-.696l9.162-3.795a.376.376 0 0 1 .492.204ZM12.304 37.165a.376.376 0 0 1 0 .532L5.292 44.71a.376.376 0 0 1-.532-.533l7.012-7.012a.376.376 0 0 1 .532 0ZM13.42 37.91c.192.08.284.3.204.492l-3.795 9.161a.376.376 0 1 1-.696-.288l3.795-9.162c.08-.192.3-.283.492-.203ZM14.735 38.172c.208 0 .376.168.376.376v9.917a.376.376 0 1 1-.753 0v-9.917c0-.208.169-.376.377-.376ZM16.05 37.91a.376.376 0 0 1 .493.203l3.795 9.162a.376.376 0 1 1-.696.288l-3.795-9.162a.376.376 0 0 1 .204-.491ZM17.166 37.165a.376.376 0 0 1 .532 0l7.013 7.012a.376.376 0 0 1-.533.533l-7.012-7.013a.376.376 0 0 1 0-.532ZM17.911 36.049c.08-.192.3-.283.492-.204l9.162 3.795a.376.376 0 1 1-.288.696l-9.162-3.795a.376.376 0 0 1-.204-.492ZM18.173 34.734c0-.208.168-.377.376-.377h9.917a.377.377 0 0 1 0 .753h-9.917a.376.376 0 0 1-.376-.376ZM27.768 29.335a.377.377 0 0 1-.203.492l-9.162 3.795a.376.376 0 1 1-.288-.696l9.162-3.795a.376.376 0 0 1 .491.204ZM24.71 24.758a.376.376 0 0 1 0 .532l-7.012 7.012a.376.376 0 0 1-.532-.532l7.012-7.012a.376.376 0 0 1 .533 0ZM20.134 21.7c.192.08.283.3.204.492l-3.795 9.161a.376.376 0 1 1-.696-.288l3.795-9.162c.08-.192.3-.283.492-.203Z" clip-rule="evenodd"/><path fill="#fff" fill-rule="evenodd" d="M14.734 20c.555 0 1.004.45 1.004 1.004v4.865a1.004 1.004 0 0 1-2.008 0v-4.865c0-.555.45-1.004 1.004-1.004ZM9.096 21.122c.512-.213 1.1.03 1.311.543l2.181 5.266a1.004 1.004 0 1 1-1.855.768l-2.18-5.266c-.213-.512.03-1.1.543-1.311ZM4.316 24.316a1.004 1.004 0 0 1 1.42 0l4.481 4.482a1.004 1.004 0 0 1-1.42 1.42l-4.481-4.483a1.004 1.004 0 0 1 0-1.42ZM1.122 29.096c.212-.512.8-.755 1.311-.543l6.219 2.576a1.004 1.004 0 0 1-.769 1.855l-6.218-2.576a1.004 1.004 0 0 1-.543-1.312ZM0 34.735c0-.554.45-1.004 1.004-1.004H7.87a1.004 1.004 0 0 1 0 2.008H1.004C.449 35.74 0 35.29 0 34.735ZM9.195 37.028c.212.512-.031 1.1-.543 1.312l-6.219 2.576a1.004 1.004 0 1 1-.768-1.855l6.218-2.576c.513-.212 1.1.03 1.312.543ZM10.217 39.251a1.004 1.004 0 0 1 0 1.42l-4.482 4.482a1.004 1.004 0 1 1-1.42-1.42l4.482-4.482a1.004 1.004 0 0 1 1.42 0ZM12.045 41.227c.512.212.756.8.543 1.312l-2.18 5.265a1.004 1.004 0 0 1-1.856-.768l2.181-5.266c.213-.512.8-.755 1.312-.543ZM14.734 42.597c.555 0 1.004.45 1.004 1.004v4.865a1.004 1.004 0 0 1-2.008 0v-4.865c0-.555.45-1.004 1.004-1.004ZM18.094 42.843c.512-.212 1.1.031 1.312.543l1.51 3.648a1.004 1.004 0 0 1-1.854.768l-1.511-3.647c-.212-.512.03-1.1.543-1.312ZM21.54 41.54a1.004 1.004 0 0 1 1.42 0l2.193 2.193a1.004 1.004 0 0 1-1.42 1.42l-2.193-2.194a1.004 1.004 0 0 1 0-1.42ZM24.18 38.646c.211-.512.799-.755 1.31-.543l2.314.958a1.004 1.004 0 1 1-.768 1.855l-2.314-.958a1.004 1.004 0 0 1-.543-1.312ZM25.173 34.735c0-.554.45-1.004 1.004-1.004h2.289a1.004 1.004 0 0 1 0 2.008h-2.289c-.554 0-1.004-.45-1.004-1.004ZM28.347 29.097c.212.512-.03 1.1-.543 1.311l-2.313.958a1.004 1.004 0 0 1-.768-1.855l2.313-.958c.512-.212 1.099.031 1.311.544ZM25.153 24.316a1.004 1.004 0 0 1 0 1.42l-2.194 2.193a1.004 1.004 0 0 1-1.42-1.42l2.194-2.194a1.004 1.004 0 0 1 1.42 0ZM20.374 21.122c.512.212.755.8.543 1.311l-1.511 3.647a1.004 1.004 0 1 1-1.855-.768l1.51-3.647c.213-.512.8-.756 1.313-.543Z" clip-rule="evenodd"/></svg>
